assets/images/logo-instagram-white.svg

<svg width="512" height="512" viewBox="0 0 512 512" fill="none" xmlns="http://www.w3.org/2000/svg">
<path d="M256 46.13C324.36 46.13 332.45 46.39 359.45 47.62C384.45 48.76 397.96 52.93 406.98 56.43C418.098 60.5394 428.157 67.0823 436.42 75.58C444.915 83.8377 451.458 93.8892 455.57 105C459.07 114 463.24 127.57 464.38 152.53C465.61 179.53 465.87 187.62 465.87 255.98C465.87 324.34 465.61 332.43 464.38 359.43C463.24 384.43 459.07 397.94 455.57 406.96C451.317 418.004 444.797 428.036 436.432 436.408C428.067 444.78 418.041 451.307 407 455.57C398 459.07 384.43 463.24 359.47 464.38C332.47 465.61 324.38 465.87 256.02 465.87C187.66 465.87 179.56 465.61 152.57 464.38C127.57 463.24 114.06 459.07 105.04 455.57C93.9221 451.461 83.8635 444.918 75.6 436.42C67.0976 428.164 60.5479 418.113 56.43 407C52.93 398 48.76 384.43 47.62 359.47C46.39 332.47 46.13 324.38 46.13 256.02C46.13 187.66 46.39 179.57 47.62 152.57C48.76 127.57 52.93 114.06 56.43 105.04C60.5368 93.9149 67.0798 83.8492 75.58 75.58C83.8377 67.0848 93.8892 60.5421 105 56.43C114 52.93 127.57 48.76 152.53 47.62C179.53 46.39 187.62 46.13 255.98 46.13H256ZM256 0C186.47 0 177.76 0.29 150.45 1.54C123.14 2.79 104.59 7.11 88.31 13.44C71.2373 19.8821 55.7747 29.9698 43 43C29.9698 55.7747 19.8821 71.2373 13.44 88.31C7.11 104.59 2.78 123.2 1.54 150.45C0.3 177.7 0 186.47 0 256C0 325.53 0.29 334.24 1.54 361.55C2.79 388.86 7.11 407.41 13.44 423.69C19.8821 440.763 29.9698 456.225 43 469C55.7864 482.023 71.2593 492.101 88.34 498.53C104.62 504.86 123.23 509.19 150.48 510.43C177.73 511.67 186.47 512 256 512C325.53 512 334.24 511.71 361.55 510.46C388.86 509.21 407.41 504.89 423.69 498.56C440.695 491.981 456.138 481.923 469.03 469.03C481.923 456.138 491.981 440.695 498.56 423.69C504.89 407.41 509.22 388.8 510.46 361.55C511.7 334.3 512 325.53 512 256C512 186.47 511.71 177.76 510.46 150.45C509.21 123.14 504.89 104.59 498.56 88.31C492.118 71.2373 482.03 55.7747 469 43C456.214 29.977 440.741 19.8995 423.66 13.47C407.41 7.11 388.8 2.78 361.55 1.54C334.3 0.3 325.53 0 256 0Z" fill="white"/>
<path d="M256 124.54C230 124.54 204.583 132.25 182.965 146.695C161.346 161.14 144.497 181.671 134.547 205.692C124.597 229.714 121.994 256.146 127.066 281.647C132.138 307.147 144.659 330.571 163.044 348.956C181.429 367.341 204.853 379.862 230.353 384.934C255.854 390.006 282.286 387.403 306.308 377.453C330.329 367.503 350.86 350.654 365.305 329.035C379.75 307.417 387.46 282 387.46 256C387.46 221.135 373.61 187.697 348.956 163.044C324.303 138.39 290.865 124.54 256 124.54ZM256 341.33C239.123 341.33 222.626 336.325 208.593 326.949C194.561 317.573 183.624 304.246 177.165 288.654C170.707 273.062 169.017 255.905 172.31 239.353C175.602 222.801 183.729 207.596 195.663 195.663C207.596 183.729 222.801 175.602 239.353 172.31C255.905 169.017 273.062 170.707 288.654 177.165C304.246 183.624 317.573 194.561 326.949 208.593C336.325 222.626 341.33 239.123 341.33 256C341.33 278.631 332.34 300.335 316.337 316.337C300.335 332.34 278.631 341.33 256 341.33Z" fill="white"/>
<path d="M392.65 150.07C409.616 150.07 423.37 136.316 423.37 119.35C423.37 102.384 409.616 88.63 392.65 88.63C375.684 88.63 361.93 102.384 361.93 119.35C361.93 136.316 375.684 150.07 392.65 150.07Z" fill="white"/>
</svg>

<svg id="Logo" xmlns="http://www.w3.org/2000/svg" viewBox="0 0 512 512"><defs><style>.cls-1{fill:#fff;}</style></defs><title>logo-instagram-white</title><path class="cls-1" d="M256,46.13c68.36,0,76.45.26,103.45,1.49,25,1.14,38.51,5.31,47.53,8.81a79.52,79.52,0,0,1,29.44,19.15A79.52,79.52,0,0,1,455.57,105c3.5,9,7.67,22.57,8.81,47.53,1.23,27,1.49,35.09,1.49,103.45s-.26,76.45-1.49,103.45c-1.14,25-5.31,38.51-8.81,47.53A84.76,84.76,0,0,1,407,455.57c-9,3.5-22.57,7.67-47.53,8.81-27,1.23-35.09,1.49-103.45,1.49s-76.46-.26-103.45-1.49c-25-1.14-38.51-5.31-47.53-8.81a79.52,79.52,0,0,1-29.44-19.15A79.52,79.52,0,0,1,56.43,407c-3.5-9-7.67-22.57-8.81-47.53-1.23-27-1.49-35.09-1.49-103.45s.26-76.45,1.49-103.45c1.14-25,5.31-38.51,8.81-47.53A79.52,79.52,0,0,1,75.58,75.58,79.52,79.52,0,0,1,105,56.43c9-3.5,22.57-7.67,47.53-8.81,27-1.23,35.09-1.49,103.45-1.49M256,0c-69.53,0-78.24.29-105.55,1.54s-45.86,5.57-62.14,11.9A125.5,125.5,0,0,0,43,43,125.5,125.5,0,0,0,13.44,88.31C7.11,104.59,2.78,123.2,1.54,150.45S0,186.47,0,256s.29,78.24,1.54,105.55,5.57,45.86,11.9,62.14A125.5,125.5,0,0,0,43,469a125.5,125.5,0,0,0,45.34,29.53c16.28,6.33,34.89,10.66,62.14,11.9S186.47,512,256,512s78.24-.29,105.55-1.54,45.86-5.57,62.14-11.9a130.94,130.94,0,0,0,74.87-74.87c6.33-16.28,10.66-34.89,11.9-62.14S512,325.53,512,256s-.29-78.24-1.54-105.55-5.57-45.86-11.9-62.14A125.5,125.5,0,0,0,469,43a125.5,125.5,0,0,0-45.34-29.53C407.41,7.11,388.8,2.78,361.55,1.54S325.53,0,256,0Z"/><path class="cls-1" d="M256,124.54A131.46,131.46,0,1,0,387.46,256,131.46,131.46,0,0,0,256,124.54Zm0,216.79A85.33,85.33,0,1,1,341.33,256,85.33,85.33,0,0,1,256,341.33Z"/><circle class="cls-1" cx="392.65" cy="119.35" r="30.72"/></svg>
